X: 1
T: The Pigeon On The Gale
R: reel
M: 4/4
L: 1/8
K: Gmaj
G3G GcBA|GABA GE ED|DG (3GGG GABd|egdB BAAB|
G3G GcBA|GABA GEED|DG (3GGG GABd|egdB G4:|
|:dgde dgd2|gdBB ABd2|gded efge|dB (3BBB ABd2|
dgde dgd2|gdBB ABdB|c2cA B2Bd|1 egdB dgde:|2 egdB BAAB||

